icons/actions/16/im-user-busy.svg

<?xml version="1.0"?>
<!-- Created with Inkscape (http://www.inkscape.org/) -->
<svg xmlns:dc="http://purl.org/dc/elements/1.1/" xmlns:cc="http://creativecommons.org/ns#" xmlns:rdf="http://www.w3.org/1999/02/22-rdf-syntax-ns#" xmlns:svg="http://www.w3.org/2000/svg" xmlns="http://www.w3.org/2000/svg" xmlns:sodipodi="http://sodipodi.sourceforge.net/DTD/sodipodi-0.dtd" xmlns:inkscape="http://www.inkscape.org/namespaces/inkscape" width="16" height="16" id="svg3049" version="1.1" inkscape:version="0.91 r13725" sodipodi:docname="im-user-busy.svg" inkscape:export-filename="/home/uri/.kde/share/icons/NITRUX-KDE/16x16/actions/view-right-new.png" inkscape:export-xdpi="30" inkscape:export-ydpi="30" viewBox="0 0 16 16">
  <defs id="defs3051">
    <style type="text/css" id="current-color-scheme">
      .ColorScheme-Text {
        color:#4d4d4d;
      }
      .ColorScheme-Background {
        color:#eff0f1;
      }
      .ColorScheme-Highlight {
        color:#3daee9;
      }
      .ColorScheme-ViewText {
        color:#31363b;
      }
      .ColorScheme-ViewBackground {
        color:#fcfcfc;
      }
      .ColorScheme-ViewHover {
        color:#93cee9;
      }
      .ColorScheme-ViewFocus{
        color:#3daee9;
      }
      .ColorScheme-ButtonText {
        color:#31363b;
      }
      .ColorScheme-ButtonBackground {
        color:#eff0f1;
      }
      .ColorScheme-ButtonHover {
        color:#93cee9;
      }
      .ColorScheme-ButtonFocus{
        color:#3daee9;
      }
      </style>
    <clipPath id="clipPath4160" clipPathUnits="userSpaceOnUse">
      <rect y="1023.3622" x="7" height="1" width="1" id="rect4162" style="opacity:1;fill:currentColor;fill-opacity:1;stroke:none;stroke-opacity:1" class="ColorScheme-Text"/>
    </clipPath>
    <clipPath clipPathUnits="userSpaceOnUse" id="clipPath4160-3">
      <rect style="opacity:1;fill:currentColor;fill-opacity:1;stroke:none;stroke-opacity:1" id="rect4162-5" width="1" height="1" x="7" y="1023.3622" class="ColorScheme-Text"/>
    </clipPath>
    <clipPath id="clipPath4160-0" clipPathUnits="userSpaceOnUse">
      <rect y="1023.3622" x="7" height="1" width="1" id="rect4162-1" style="opacity:1;fill:currentColor;fill-opacity:1;stroke:none;stroke-opacity:1" class="ColorScheme-Text"/>
    </clipPath>
  </defs>
  <sodipodi:namedview id="base" pagecolor="#ffffff" bordercolor="#666666" borderopacity="1.0" inkscape:pageopacity="0.0" inkscape:pageshadow="2" inkscape:zoom="97.645224" inkscape:cx="5.4367742" inkscape:cy="12.492701" inkscape:document-units="px" inkscape:current-layer="layer1" showgrid="true" fit-margin-top="0" fit-margin-left="0" fit-margin-right="0" fit-margin-bottom="0" inkscape:window-width="1920" inkscape:window-height="1008" inkscape:window-x="-4" inkscape:window-y="0" inkscape:window-maximized="1" inkscape:showpageshadow="false" borderlayer="true" inkscape:snap-bbox="true" inkscape:snap-global="true" inkscape:object-nodes="true">
    <inkscape:grid type="xygrid" id="grid4085"/>
    <sodipodi:guide position="2.0000044,14.00003" orientation="12,0" id="guide4075"/>
    <sodipodi:guide position="2.0000044,2.0000296" orientation="0,12" id="guide4077"/>
    <sodipodi:guide position="14.000004,2.0000296" orientation="-12,0" id="guide4079"/>
    <sodipodi:guide position="14.000004,14.00003" orientation="0,-12" id="guide4081"/>
  </sodipodi:namedview>
  <metadata id="metadata3054">
    <rdf:RDF>
      <cc:Work rdf:about="">
        <dc:format>image/svg+xml</dc:format>
        <dc:type rdf:resource="http://purl.org/dc/dcmitype/StillImage"/>
        <dc:title/>
      </cc:Work>
    </rdf:RDF>
  </metadata>
  <g inkscape:label="Capa 1" inkscape:groupmode="layer" id="layer1" transform="translate(-421.71429,-531.79074)">
    <path style="opacity:1;fill:#f47750;fill-opacity:1;stroke:none;stroke-opacity:1" d="M 8 2 C 6.34315 2 5 3.34315 5 5 C 5 6.65685 6.34315 8 8 8 C 9.65685 8 11 6.65685 11 5 C 11 3.34315 9.65685 2 8 2 z M 7 3 L 8 3 L 8 5 L 9 5 L 9 6 L 8 6 L 7 6 L 7 3 z M 8 9 C 5.23858 9 3 11.01472 3 13.5 C 3.00074 13.66709 3.0118031 13.83402 3.0332031 14 L 4 14 L 4.0449219 14 L 11.955078 14 L 12 14 L 12.962891 14 C 12.985591 13.83408 12.998 13.66716 13 13.5 C 13 11.01472 10.76142 9 8 9 z M 8 10 C 9.98692 10.002 11.671238 11.27928 11.955078 13 L 4.0449219 13 C 4.3287719 11.27927 6.01308 10.00169 8 10 z " transform="translate(421.71429,531.79074)" id="path16"/>
    <path style="fill:#ffffff;fill-opacity:1;stroke:none;stroke-linecap:butt;stroke-linejoin:round" d="M 7 3 L 7 6 L 8 6 L 9 6 L 9 5 L 8 5 L 8 3 L 7 3 z " transform="translate(421.71429,531.79074)" id="rect4145"/>
  </g>
</svg>

<svg xmlns="http://www.w3.org/2000/svg" viewBox="0 0 16 16">
 <path fill="#f47750" d="m8 2c-1.657 0-3 1.343-3 3 0 1.657 1.343 3 3 3 1.657 0 3-1.343 3-3 0-1.657-1.343-3-3-3m-1 1h1v2h1v1h-2zm1 6c-2.761 0-5 2.01-5 4.5.001.167.012.334.033.5h9.93c.023-.166.035-.333.037-.5 0-2.485-2.239-4.5-5-4.5m0 1c1.987.002 3.671 1.279 3.955 3h-7.91c.284-1.721 1.968-2.998 3.955-3"/>
 <path fill="#fff" d="m7 3v3h2v-1h-1v-2z"/>
</svg>
